www/assets/icons/kitchen.svg

<svg xmlns="http://www.w3.org/2000/svg" width="24" height="24" viewBox="0 0 24 24" fill='currentColor'><path d="M20 9V4c0-1.1-.9-2-2-2H6c-1.1 0-2 .9-2 2v5zM8 5h2v3H8zm-4 6v9c0 1.1.9 2 2 2h12c1.1 0 2-.9 2-2v-9zm6 6H8v-5h2z"/></svg>

<svg width="24" height="24" viewBox="0 0 24 24" xmlns="http://www.w3.org/2000/svg" fill='currentColor'><path d="M20 9V4C20 2.9 19.1 2 18 2H6C4.9 2 4 2.9 4 4V9H20ZM8 5H10V8H8V5ZM4 11V20C4 21.1 4.9 22 6 22H18C19.1 22 20 21.1 20 20V11H4ZM10 17H8V12H10V17Z"/></svg>
